sources/design/Outline/ഠ.svg

<svg:svg xmlns:cc="http://creativecommons.org/ns#" xmlns:dc="http://purl.org/dc/elements/1.1/" xmlns:inkscape="http://www.inkscape.org/namespaces/inkscape" xmlns:rdf="http://www.w3.org/1999/02/22-rdf-syntax-ns#" xmlns:sodipodi="http://sodipodi.sourceforge.net/DTD/sodipodi-0.dtd" xmlns:svg="http://www.w3.org/2000/svg" xml:space="preserve" width="1000" height="1000" version="1.1" style="clip-rule:evenodd;fill-rule:evenodd;image-rendering:optimizeQuality;shape-rendering:geometricPrecision;text-rendering:geometricPrecision" viewBox="0 0 1000 1000" id="svg10" sodipodi:docname="ഠ.svg" inkscape:version="1.1.1 (3bf5ae0d25, 2021-09-20)"><svg:text text-anchor="middle" x="428.7511" y="796.25897" id="bottom" inkscape:label="bottom" style="clip-rule:evenodd;fill-rule:evenodd;image-rendering:optimizeQuality;shape-rendering:geometricPrecision;text-rendering:geometricPrecision">✛</svg:text><svg:metadata id="metadata14"><rdf:RDF><cc:Work rdf:about=""><dc:format>image/svg+xml</dc:format><dc:type rdf:resource="http://purl.org/dc/dcmitype/StillImage" /><dc:title /></cc:Work></rdf:RDF></svg:metadata><sodipodi:namedview pagecolor="#ffffff" bordercolor="#666666" borderopacity="1" objecttolerance="10" gridtolerance="10" guidetolerance="10" inkscape:pageopacity="0" inkscape:pageshadow="2" inkscape:window-width="1920" inkscape:window-height="1009" id="namedview12" showgrid="false" inkscape:zoom="1.6978177" inkscape:cx="614.02353" inkscape:cy="621.97491" inkscape:window-x="0" inkscape:window-y="60" inkscape:window-maximized="1" inkscape:current-layer="svg10" showguides="true" inkscape:guide-bbox="true" inkscape:document-rotation="0" inkscape:pagecheckerboard="0"><sodipodi:guide position="0,1000" orientation="0,1" id="guide16" inkscape:label="" inkscape:locked="true" inkscape:color="rgb(0,0,255)" /><sodipodi:guide position="1763.3122,2036.1693" orientation="1000,0" id="guide18" /><sodipodi:guide position="0,200" orientation="0,1" id="guide20" inkscape:label="base" inkscape:locked="true" inkscape:color="rgb(0,0,255)" /><inkscape:grid type="xygrid" id="grid24" originx="-473.37552" originy="-489.69235" /><sodipodi:guide position="0,0" orientation="0,1" id="guide34" inkscape:label="bottom" inkscape:locked="true" inkscape:color="rgb(0,0,255)" /><sodipodi:guide position="225.05109,1693.3186" orientation="0,1" id="guide44" inkscape:label="" inkscape:locked="false" inkscape:color="rgb(0,0,255)" /><sodipodi:guide position="0,900" orientation="0,1" id="guide46" inkscape:label="" inkscape:locked="true" inkscape:color="rgb(0,0,255)" /><sodipodi:guide position="595.2592,590.08913" orientation="-1,0" id="guide841" inkscape:label="width" inkscape:locked="false" inkscape:color="rgb(0,0,255)" /></sodipodi:namedview>
 <svg:defs id="defs4"><inkscape:path-effect effect="spiro" id="path-effect852" is_visible="true" lpeversion="1" /><inkscape:path-effect effect="spiro" id="path-effect907" is_visible="true" lpeversion="1" /><inkscape:path-effect effect="spiro" id="path-effect903" is_visible="true" lpeversion="1" /><inkscape:path-effect effect="spiro" id="path-effect884" is_visible="true" lpeversion="1" /><inkscape:path-effect effect="spiro" id="path-effect851" is_visible="true" lpeversion="1" />
  <svg:style type="text/css" id="style2">
   
    .fil0 {fill:#EF7F1A;fill-rule:nonzero}
   
  </svg:style>
 <inkscape:path-effect effect="spiro" id="path-effect1214" is_visible="true" lpeversion="1" /><inkscape:path-effect effect="spiro" id="path-effect1195" is_visible="true" lpeversion="1" /><inkscape:path-effect effect="spiro" id="path-effect992" is_visible="true" lpeversion="1" /><inkscape:path-effect effect="spiro" id="path-effect1060" is_visible="true" lpeversion="1" /><inkscape:path-effect effect="spiro" id="path-effect1047" is_visible="true" lpeversion="1" /><inkscape:path-effect effect="spiro" id="path-effect1085" is_visible="true" lpeversion="1" /><inkscape:path-effect effect="spiro" id="path-effect1286" is_visible="true" lpeversion="1" /><inkscape:path-effect effect="spiro" id="path-effect1305" is_visible="true" lpeversion="1" /></svg:defs>
 
<svg:g id="g857"><svg:g id="path882-0"><svg:path style="color:#000000;fill:#1a5fb4;stroke-linecap:round;stroke-linejoin:round;-inkscape-stroke:none;paint-order:fill stroke markers;fill-rule:nonzero" d="M 293.77148,72.324219 C 287.76662,72.290449 281.7507,72.452161 275.73437,72.814453 C 185.32261,78.258882 103.18351,128.83708 50.28125,199.78125 C -2.3226319,270.32529 -25.987445,357.93939 -26.367187,443.74023 C -26.790967,539.4911 2.0365104,637.5921 65.5,712.4375 C 97.227662,749.8553899999999 137.05836,780.7284099999999 182.47460999999998,800.8671899999999 C 227.94403,821.0295399999999 278.5095,830.08291 328.62891,825.2089799999999 C 419.27054000000004,816.3944299999998 499.94417,762.5670699999998 550.55469,689.3789099999999 C 600.88132,616.60126 621.57838,527.74155 619.04102,441.5 C 616.3489,349.99872 587.22817,257.11099 526.44922,185.54297 C 496.06155,149.76109 458.24107,119.95358 415.10937,99.919922 C 377.32715,82.370972 335.80555,72.560589 293.77148,72.324219 M 293.42187,132.33008 C 326.34462,132.5368 359.5816,140.28442 389.83398,154.33594 C 424.45612,170.4171 455.60897,194.81802 480.7168,224.38281 C 530.92883,283.50815 556.71597,363.37556 559.06641,443.26367000000005 C 561.28369,518.6261800000001 542.83338,595.0549800000001 501.20508,655.25391 C 459.86066,715.04231 393.09358,758.6583800000001 322.82031,765.49219 C 283.77188,769.2895000000001 243.22534000000002,762.1728800000001 206.79687,746.01953 C 170.31523,729.8426 137.47364,704.54573 111.26172,673.63281 C 58.84604,611.8166 33.263589,527.43019 33.632812,444.00586 C 33.964164,369.13863 54.938729,293.90618 98.380859,235.64844 C 141.52461,177.79083 209.37444,136.92034 279.3418,132.70703 C 284.02257,132.42516 288.71862999999996,132.30055000000002 293.42186999999996,132.33008 L 293.42187,132.33008 M 297.00586,202.88672000000003 C 292.89288,202.83652000000004 288.77261999999996,202.89372000000003 284.64844,203.05859000000004 C 222.55687,205.54588000000004 163.14974999999998,232.46626000000003 119.58983999999998,276.18555000000003 C 76.09436999999998,319.84017000000006 49.79170599999998,378.5461 44.734374999999986,439.53125 C 38.74729499999999,511.72803 62.95647899999999,585.33665 112.33202999999999,638.98242 C 161.80076,692.7294300000001 234.25002,723.3964100000001 307.65819999999997,719.60937 C 376.18674,716.07408 440.95817999999997,682.84903 484.81640999999996,630.64453 C 528.6013399999999,578.52728 549.8396299999999,509.97764000000006 544.88672,442.5332 C 540.12411,377.68007 511.29339,315.26692 463.53515999999996,270.46680000000003 C 418.68735999999996,228.39684000000003 358.70056,203.63904000000002 297.00586,202.88672000000003 M 287.04883,263.00977 C 335.9501,261.05086 386.46306000000004,280.43638 422.48437,314.22656 C 458.58511,348.09125 481.38837,397.10932 485.04687,446.92773 C 488.84847,498.69456 471.98087000000004,552.6452 438.87695,592.04883 C 405.84633,631.3652099999999 355.41336,657.06643 304.56836,659.68945 C 250.20451999999997,662.49401 193.65409,638.7402999999999 156.47851999999997,598.34961 C 119.20975999999997,557.8576899999999 99.94279799999998,499.79774 104.52929999999998,444.49023 C 108.41868999999998,397.58895 129.18003999999996,351.56929 162.09374999999997,318.53516 C 194.94302999999996,285.56569 240.97038999999995,264.85560000000004 287.04882999999995,263.00977 L 287.04883,263.00977" id="path21300" /></svg:g></svg:g></svg:svg>

<svg:svg xmlns:cc="http://creativecommons.org/ns#" xmlns:dc="http://purl.org/dc/elements/1.1/" xmlns:inkscape="http://www.inkscape.org/namespaces/inkscape" xmlns:rdf="http://www.w3.org/1999/02/22-rdf-syntax-ns#" xmlns:sodipodi="http://sodipodi.sourceforge.net/DTD/sodipodi-0.dtd" xmlns:svg="http://www.w3.org/2000/svg" xml:space="preserve" width="1000" height="1000" version="1.1" style="clip-rule:evenodd;fill-rule:evenodd;image-rendering:optimizeQuality;shape-rendering:geometricPrecision;text-rendering:geometricPrecision" viewBox="0 0 1000 1000" id="svg10" sodipodi:docname="ഠ.svg" inkscape:version="1.1.1 (3bf5ae0d25, 2021-09-20)"><svg:text text-anchor="middle" x="428.7511" y="796.25897" id="bottom" inkscape:label="bottom" style="clip-rule:evenodd;fill-rule:evenodd;image-rendering:optimizeQuality;shape-rendering:geometricPrecision;text-rendering:geometricPrecision">✛</svg:text><svg:metadata id="metadata14"><rdf:RDF><cc:Work rdf:about=""><dc:format>image/svg+xml</dc:format><dc:type rdf:resource="http://purl.org/dc/dcmitype/StillImage" /><dc:title /></cc:Work></rdf:RDF></svg:metadata><sodipodi:namedview pagecolor="#ffffff" bordercolor="#666666" borderopacity="1" objecttolerance="10" gridtolerance="10" guidetolerance="10" inkscape:pageopacity="0" inkscape:pageshadow="2" inkscape:window-width="1920" inkscape:window-height="1009" id="namedview12" showgrid="false" inkscape:zoom="1.6978177" inkscape:cx="614.02353" inkscape:cy="621.97491" inkscape:window-x="0" inkscape:window-y="60" inkscape:window-maximized="1" inkscape:current-layer="svg10" showguides="true" inkscape:guide-bbox="true" inkscape:document-rotation="0" inkscape:pagecheckerboard="0"><sodipodi:guide position="0,1000" orientation="0,1" id="guide16" inkscape:label="" inkscape:locked="true" inkscape:color="rgb(0,0,255)" /><sodipodi:guide position="1763.3122,2036.1693" orientation="1000,0" id="guide18" /><sodipodi:guide position="0,200" orientation="0,1" id="guide20" inkscape:label="base" inkscape:locked="true" inkscape:color="rgb(0,0,255)" /><inkscape:grid type="xygrid" id="grid24" originx="-473.37552" originy="-489.69235" /><sodipodi:guide position="0,0" orientation="0,1" id="guide34" inkscape:label="bottom" inkscape:locked="true" inkscape:color="rgb(0,0,255)" /><sodipodi:guide position="225.05109,1693.3186" orientation="0,1" id="guide44" inkscape:label="" inkscape:locked="false" inkscape:color="rgb(0,0,255)" /><sodipodi:guide position="0,900" orientation="0,1" id="guide46" inkscape:label="" inkscape:locked="true" inkscape:color="rgb(0,0,255)" /><sodipodi:guide position="595.2592,590.08913" orientation="-1,0" id="guide841" inkscape:label="width" inkscape:locked="false" inkscape:color="rgb(0,0,255)" /></sodipodi:namedview>
 <svg:defs id="defs4"><inkscape:path-effect effect="spiro" id="path-effect852" is_visible="true" lpeversion="1" /><inkscape:path-effect effect="spiro" id="path-effect907" is_visible="true" lpeversion="1" /><inkscape:path-effect effect="spiro" id="path-effect903" is_visible="true" lpeversion="1" /><inkscape:path-effect effect="spiro" id="path-effect884" is_visible="true" lpeversion="1" /><inkscape:path-effect effect="spiro" id="path-effect851" is_visible="true" lpeversion="1" />
  <svg:style type="text/css" id="style2">
   
    .fil0 {fill:#EF7F1A;fill-rule:nonzero}
   
  </svg:style>
 <inkscape:path-effect effect="spiro" id="path-effect1214" is_visible="true" lpeversion="1" /><inkscape:path-effect effect="spiro" id="path-effect1195" is_visible="true" lpeversion="1" /><inkscape:path-effect effect="spiro" id="path-effect992" is_visible="true" lpeversion="1" /><inkscape:path-effect effect="spiro" id="path-effect1060" is_visible="true" lpeversion="1" /><inkscape:path-effect effect="spiro" id="path-effect1047" is_visible="true" lpeversion="1" /><inkscape:path-effect effect="spiro" id="path-effect1085" is_visible="true" lpeversion="1" /><inkscape:path-effect effect="spiro" id="path-effect1286" is_visible="true" lpeversion="1" /><inkscape:path-effect effect="spiro" id="path-effect1305" is_visible="true" lpeversion="1" /></svg:defs>
 
<svg:g id="g857"><svg:g id="path882-0"><svg:path style="color:#000000;fill:#1a5fb4;stroke-linecap:round;stroke-linejoin:round;-inkscape-stroke:none;fill-rule:nonzero" d="m 293.77148,72.324219 c -6.00486,-0.03377 -12.02078,0.127942 -18.03711,0.490234 C 185.32261,78.258882 103.18351,128.83708 50.28125,199.78125 -2.3226319,270.32529 -25.987445,357.93939 -26.367187,443.74023 -26.790967,539.4911 2.0365104,637.5921 65.5,712.4375 c 31.727662,37.41789 71.55836,68.29091 116.97461,88.42969 45.46942,20.16235 96.03489,29.21572 146.1543,24.34179 90.64163,-8.81455 171.31526,-62.64191 221.92578,-135.83007 C 600.88132,616.60126 621.57838,527.74155 619.04102,441.5 616.3489,349.99872 587.22817,257.11099 526.44922,185.54297 496.06155,149.76109 458.24107,119.95358 415.10937,99.919922 377.32715,82.370972 335.80555,72.560589 293.77148,72.324219 Z m -0.34961,60.005861 c 32.92275,0.20672 66.15973,7.95434 96.41211,22.00586 34.62214,16.08116 65.77499,40.48208 90.88282,70.04687 50.21203,59.12534 75.99917,138.99275 78.34961,218.88086 2.21728,75.36251 -16.23303,151.79131 -57.86133,211.99024 -41.34442,59.7884 -108.1115,103.40447 -178.38477,110.23828 -39.04843,3.79731 -79.59497,-3.31931 -116.02344,-19.47266 C 170.31523,729.8426 137.47364,704.54573 111.26172,673.63281 58.84604,611.8166 33.263589,527.43019 33.632812,444.00586 33.964164,369.13863 54.938729,293.90618 98.380859,235.64844 141.52461,177.79083 209.37444,136.92034 279.3418,132.70703 c 4.68077,-0.28187 9.37683,-0.40648 14.08007,-0.37695 z m 3.58399,70.55664 c -4.11298,-0.0502 -8.23324,0.007 -12.35742,0.17187 -62.09157,2.48729 -121.49869,29.40767 -165.0586,73.12696 -43.49547,43.65462 -69.798134,102.36055 -74.855465,163.3457 -5.98708,72.19678 18.222104,145.8054 67.597655,199.45117 49.46873,53.74701 121.91799,84.41399 195.32617,80.62695 68.52854,-3.53529 133.29998,-36.76034 177.15821,-88.96484 43.78493,-52.11725 65.02322,-120.66689 60.07031,-188.11133 -4.76261,-64.85313 -33.59333,-127.26628 -81.35156,-172.0664 -44.8478,-42.06996 -104.8346,-66.82776 -166.5293,-67.58008 z m -9.95703,60.12305 c 48.90127,-1.95891 99.41423,17.42661 135.43554,51.21679 36.10074,33.86469 58.904,82.88276 62.5625,132.70117 3.8016,51.76683 -13.066,105.71747 -46.16992,145.1211 -33.03062,39.31638 -83.46359,65.0176 -134.30859,67.64062 -54.36384,2.80456 -110.91427,-20.94915 -148.08984,-61.33984 -37.26876,-40.49192 -56.535722,-98.55187 -51.94922,-153.85938 3.88939,-46.90128 24.65074,-92.92094 57.56445,-125.95507 32.84928,-32.96947 78.87664,-53.67956 124.95508,-55.52539 z" id="path21248" /></svg:g></svg:g></svg:svg>
